static/icons/cnlc_cloud.svg

<svg width="103" height="100" viewBox="0 0 103 100" fill="none" xmlns="http://www.w3.org/2000/svg">
<path d="M82.5447 82.7003H64.7389C64.2901 82.7003 63.9409 82.3503 63.9409 81.9003V61.1007C63.9409 60.6507 64.2901 60.3007 64.7389 60.3007C65.1878 60.3007 65.5369 60.6507 65.5369 61.1007V81.1003H82.5447C82.9935 81.1003 83.3427 81.4503 83.3427 81.9003C83.3427 82.3503 82.9935 82.7003 82.5447 82.7003Z" fill="#244583"/>
<path d="M37.4568 82.7003H19.651C19.2022 82.7003 18.853 82.3504 18.853 81.9004C18.853 81.4504 19.2022 81.1004 19.651 81.1004H36.6588V61.1007C36.6588 60.6507 37.0079 60.3008 37.4568 60.3008C37.9057 60.3008 38.2548 60.6507 38.2548 61.1007V81.9004C38.2548 82.3004 37.8558 82.7003 37.4568 82.7003Z" fill="#244583"/>
<path d="M50.6739 96.1501C50.225 96.1501 49.8759 95.8001 49.8759 95.3501V66.6507C49.8759 66.2007 50.225 65.8507 50.6739 65.8507C51.1228 65.8507 51.4719 66.2007 51.4719 66.6507V95.3501C51.4719 95.8001 51.1228 96.1501 50.6739 96.1501Z" fill="#244583"/>
<path d="M87.0336 29.1013C91.2731 18.5515 86.1858 6.55173 75.6619 2.30181C67.8813 -0.848133 58.9535 1.10183 53.1678 7.15172C44.5892 -0.298142 31.6214 0.60184 24.1899 9.20168C21.4467 12.3516 19.701 16.3016 19.2522 20.5015C6.68341 23.2014 -1.3965 35.6012 1.2968 48.201C3.99011 60.8007 16.3594 68.9006 28.9281 66.2006C31.9207 65.5506 34.7636 64.3507 37.3073 62.6007C44.8884 71.0005 57.8562 71.6505 66.2354 64.0507C66.385 63.9507 66.4847 63.8007 66.6344 63.7007C74.8639 71.5505 87.8815 71.2005 95.7121 62.9507C103.543 54.7008 103.193 41.6511 94.9639 33.8012C92.7195 31.6513 90.0262 30.0513 87.0336 29.1013Z" fill="#EBECE9"/>
<path d="M101.348 48.701C101.348 60.0508 92.1709 69.3006 80.849 69.3006C75.5622 69.3006 70.4748 67.2506 66.6344 63.6007C58.4547 71.4505 45.4869 71.1505 37.6564 62.9507C37.5068 62.8007 37.407 62.7007 37.2574 62.5507C26.6837 69.9006 12.1698 67.2006 4.838 56.6008C2.44395 53.1509 1.04742 49.101 0.748169 44.901C6.03503 56.6508 19.8008 61.9007 31.5715 56.6008C32.8683 56.0008 34.0653 55.3508 35.2624 54.5009C42.8435 62.9007 55.8113 63.5507 64.1904 55.9508C64.3401 55.8508 64.4398 55.7008 64.5894 55.5508C72.819 63.4007 85.7867 63.1007 93.6173 54.8508C97.2582 51.0009 99.3031 45.901 99.3031 40.6511C99.3031 40.3511 99.3031 40.0511 99.3031 39.7511C100.7 42.6011 101.398 45.651 101.348 48.701Z" fill="#C1C1C1"/>
<path d="M80.7991 70.1495C75.5621 70.1495 70.5745 68.2496 66.6343 64.7496C58.1055 72.3495 45.0879 71.8495 37.1576 63.5997C25.9854 70.8495 11.0725 67.6496 3.84045 56.4498C1.34665 52.5499 0 48 0 43.35C0.049876 32.1502 7.6809 22.4504 18.5539 19.8505C20.1 8.10069 30.8732 -0.0991641 42.5442 1.50081C46.4346 2.0508 50.0755 3.60077 53.1179 6.05072C57.108 2.15079 62.4448 -0.049165 67.981 0.000834074C79.7517 0.000834074 89.3279 9.55066 89.3279 21.3504C89.3279 23.8004 88.9289 26.2504 88.081 28.6003C99.1535 32.6502 104.889 44.9 100.899 56.0498C97.8068 64.4996 89.7768 70.1495 80.7991 70.1495ZM66.6842 62.8497C66.8837 62.8497 67.0832 62.9497 67.2328 63.0497C75.1631 70.5995 87.6321 70.2495 95.1634 62.3497C102.695 54.4498 102.346 41.9001 94.4651 34.3502C92.3205 32.3002 89.6771 30.7503 86.8341 29.8503C86.4351 29.7003 86.1857 29.2503 86.3354 28.8503V28.8003C90.4252 18.6505 85.4875 7.1507 75.3626 3.05078C67.8812 0.050833 59.3026 1.9008 53.7165 7.75069C53.4172 8.05069 52.9184 8.10069 52.6192 7.80069C44.3896 0.600823 31.9206 1.45081 24.7884 9.70066C22.1449 12.7506 20.499 16.5505 20.0502 20.5505C20.0003 20.9004 19.7509 21.2004 19.4018 21.2504C7.2819 23.8504 -0.49876 35.8502 2.09479 48C4.68834 60.1497 16.6586 67.9496 28.7785 65.3496C31.6713 64.7496 34.4144 63.5497 36.8584 61.8497C37.2075 61.5997 37.6564 61.6497 37.9058 61.9497C45.1877 70.0496 57.6567 70.6495 65.7366 63.3497C65.8862 63.2497 65.986 63.0997 66.1356 62.9997C66.2852 62.9497 66.4847 62.8497 66.6842 62.8497Z" fill="#244583"/>
<path d="M53.1678 7.15164C53.1678 7.15164 55.4123 8.75161 56.2103 12.8015L53.1678 7.15164Z" fill="#DBE2EB"/>
<path d="M56.2102 13.6516C55.8111 13.6516 55.5119 13.4016 55.4121 13.0016C54.664 9.30164 52.669 7.85167 52.669 7.80167C52.3198 7.55167 52.2201 7.05168 52.4695 6.70169C52.7188 6.3517 53.2176 6.2517 53.5667 6.50169C53.5667 6.50169 53.5667 6.50169 53.6166 6.50169C53.7164 6.55169 56.1104 8.35166 57.0082 12.6516C57.1079 13.1016 56.8087 13.5016 56.4097 13.6016C56.3099 13.6516 56.26 13.6516 56.2102 13.6516Z" fill="#2F3A5A"/>
<path d="M87.0336 29.1012C84.6396 28.1012 81.9961 27.8013 79.4026 28.1512L87.0336 29.1012Z" fill="#DBE2EB"/>
<path d="M87.0335 29.9013C86.9338 29.9013 86.7842 29.8513 86.6844 29.8013C84.44 28.9013 81.9462 28.6013 79.5521 28.9513C79.1032 29.0013 78.7042 28.7013 78.6544 28.2513C78.6045 27.8013 78.9037 27.4014 79.3028 27.3514C82.0459 26.9514 84.839 27.3014 87.3827 28.3513C87.7817 28.5513 87.9313 29.0013 87.7318 29.4013C87.632 29.7013 87.3328 29.8513 87.0335 29.9013Z" fill="#2F3A5A"/>
<path d="M19.2522 20.4515C19.2522 20.4515 23.3919 19.5515 26.1351 22.0514L19.2522 20.4515Z" fill="#DBE2EB"/>
<path d="M26.135 22.8514C25.9355 22.8514 25.736 22.8014 25.5863 22.6514C23.1923 20.5014 19.4516 21.2514 19.4516 21.2514C19.0027 21.3514 18.6037 21.0514 18.504 20.6514C18.4042 20.2514 18.7035 19.8014 19.1025 19.7014C19.302 19.6514 23.6911 18.7515 26.6836 21.5014C27.0327 21.8014 27.0327 22.3014 26.7335 22.6514C26.5839 22.7514 26.3345 22.8514 26.135 22.8514Z" fill="#2F3A5A"/>
<path d="M50.6741 88.1003C47.6316 88.1003 45.1378 90.6002 45.1378 93.6502C45.1378 96.7001 47.6316 99.2001 50.6741 99.2001C53.7165 99.2001 56.2103 96.7001 56.2103 93.6502C56.2103 90.6002 53.7165 88.1003 50.6741 88.1003Z" fill="#9FEFDE"/>
<path d="M50.674 100C47.1827 100 44.3397 97.1501 44.3397 93.6501C44.3397 90.1502 47.1827 87.3003 50.674 87.3003C54.1653 87.3003 57.0082 90.1502 57.0082 93.6501C57.0082 97.1501 54.1653 100 50.674 100ZM50.674 88.9002C48.0804 88.9002 45.9358 91.0002 45.9358 93.6501C45.9358 96.3001 48.0305 98.4001 50.674 98.4001C53.3174 98.4001 55.4122 96.3001 55.4122 93.6501C55.4122 91.0502 53.2675 88.9002 50.674 88.9002Z" fill="#244583"/>
<path d="M82.5448 75.8505C79.5024 75.8505 77.0085 78.3504 77.0085 81.4004C77.0085 84.4503 79.5024 86.9503 82.5448 86.9503C85.5872 86.9503 88.081 84.4503 88.081 81.4004C88.081 78.3004 85.5872 75.8505 82.5448 75.8505Z" fill="#FED19A"/>
<path d="M82.5447 87.7002C79.0534 87.7002 76.2104 84.8502 76.2104 81.3503C76.2104 77.8504 79.0534 75.0004 82.5447 75.0004C86.036 75.0004 88.879 77.8504 88.879 81.3503C88.879 84.9002 86.036 87.7002 82.5447 87.7002ZM82.5447 76.6504C79.9511 76.6504 77.8065 78.8004 77.8065 81.4003C77.8065 84.0003 79.9511 86.1502 82.5447 86.1502C85.1383 86.1502 87.2829 84.0003 87.2829 81.4003C87.2829 78.7504 85.1383 76.6504 82.5447 76.6504Z" fill="#244583"/>
<path d="M18.4043 76.3504C15.3618 76.3504 12.868 78.8504 12.868 81.9003C12.868 84.9503 15.3618 87.4502 18.4043 87.4502C21.4467 87.4502 23.9405 84.9503 23.9405 81.9003C23.9405 78.8004 21.4467 76.3504 18.4043 76.3504Z" fill="#24C4A1"/>
<path d="M18.4043 88.2502C14.913 88.2502 12.0701 85.4003 12.0701 81.9004C12.0701 78.4004 14.913 75.5505 18.4043 75.5505C21.8956 75.5505 24.7386 78.4004 24.7386 81.9004C24.7386 85.4003 21.8956 88.2002 18.4043 88.2502ZM18.4043 77.1504C15.8108 77.1504 13.6661 79.2504 13.6661 81.9004C13.6661 84.5003 15.7609 86.6503 18.4043 86.6503C21.0477 86.6503 23.1425 84.5503 23.1425 81.9004C23.1425 79.2504 20.9979 77.1504 18.4043 77.1504Z" fill="#244583"/>
<path d="M49.3426 8.67004C46.9509 10.2451 41.4091 13.4535 34.6423 14.8535C33.5923 15.0868 32.834 16.0202 32.834 17.0702V35.3289C32.834 37.2539 33.1257 39.1789 33.709 40.9873C34.934 44.954 37.4424 48.4541 40.8258 50.9041L49.8093 57.4376C50.276 57.7876 50.9176 57.7876 51.4427 57.4376L60.4261 50.9041C63.8095 48.4541 66.3179 44.954 67.5429 40.9873C68.1263 39.1789 68.418 37.2539 68.418 35.3289V17.1285C68.418 16.0202 67.6596 15.1452 66.6096 14.9118C59.7261 13.4535 54.1844 10.2451 51.7927 8.67004C51.0343 8.20337 50.101 8.20337 49.3426 8.67004Z" fill="#9FEFDE"/>
<path d="M66.9012 14.3868C66.7262 14.3285 66.5512 14.3285 66.3179 14.2701C66.6679 14.6785 66.8429 15.2035 66.8429 15.7285V34.5122C66.8429 36.4955 66.5512 38.4206 65.9679 40.3456C64.6845 44.429 62.0012 48.0457 58.4428 50.5541L48.9343 57.2626C48.7009 57.4376 48.4676 57.4959 48.1759 57.4959L49.1676 58.1959C49.6926 58.5459 50.3926 58.5459 50.8593 58.1959L60.3678 51.4875C63.9262 48.9791 66.6096 45.3624 67.8929 41.279C68.4763 39.4123 68.7679 37.4289 68.7679 35.4455V16.7202C68.8263 15.6118 68.0096 14.6201 66.9012 14.3868Z" fill="#24C4A1"/>
<path d="M66.9012 13.8618C59.9594 12.4034 54.301 9.02005 52.1426 7.62002C51.151 6.97834 49.9259 6.97834 48.9342 7.62002C46.7759 9.02005 41.1174 12.4034 34.1756 13.8618C32.7756 14.1535 31.7839 15.3785 31.7839 16.7785V35.3872C31.7839 37.4289 32.0756 39.4123 32.659 41.3373C33.9423 45.5374 36.6257 49.2124 40.1258 51.7791L49.2843 58.4293C49.6343 58.6626 50.0426 58.8376 50.4509 58.8376C50.8593 58.8376 51.2676 58.7209 51.6176 58.4293L60.7761 51.7791C64.3345 49.2124 66.9596 45.479 68.2429 41.3373C68.8263 39.4123 69.1179 37.3706 69.1179 35.3872V16.7785C69.2929 15.3785 68.3013 14.1535 66.9012 13.8618ZM68.0096 16.7785V35.3872C68.0096 37.3122 67.7179 39.1789 67.1929 40.9873C65.9679 44.8957 63.5178 48.3958 60.1928 50.7875L51.0343 57.4376C50.7426 57.6126 50.3926 57.6126 50.1593 57.4376L40.9424 50.7875C37.6174 48.3958 35.1673 44.8957 33.9423 40.9873C33.359 39.1789 33.1256 37.3122 33.1256 35.3872V16.7785C33.1256 15.9618 33.709 15.2618 34.5257 15.1452C41.4091 13.6868 47.0092 10.5367 49.6926 8.72838C50.2759 8.37837 50.9759 8.37837 51.5593 8.72838C54.301 10.4784 59.9011 13.6868 66.7262 15.1452C67.4846 15.2618 68.0096 15.9618 68.0096 16.7785Z" fill="#22417D"/>
<path d="M50.5676 59.0126C50.1009 59.0126 49.6342 58.896 49.2842 58.6043L40.1257 51.9542C36.5673 49.3875 33.884 45.6541 32.6006 41.3957C32.0173 39.4706 31.7256 37.4289 31.7256 35.3872V16.7785C31.7256 15.3202 32.7756 14.0368 34.234 13.7452C41.0591 12.2868 46.7175 8.9034 48.8759 7.50337C49.9259 6.80336 51.2676 6.86169 52.2593 7.50337C54.3593 8.9034 60.0761 12.2285 66.9596 13.6868C68.4179 13.9785 69.4679 15.2618 69.4679 16.7202V35.3289C69.4679 37.3706 69.1763 39.4123 68.5929 41.3373C67.3096 45.5374 64.6262 49.2708 61.0678 51.8958L51.9093 58.546C51.5009 58.896 51.0343 59.0126 50.5676 59.0126ZM50.5676 7.32837C50.0426 7.32837 49.5176 7.50337 49.0509 7.79504C46.8925 9.19507 41.1758 12.5785 34.234 14.0368C32.9506 14.3285 31.9589 15.4368 31.9589 16.7785V35.3872C31.9589 37.3706 32.2506 39.4123 32.8339 41.279C34.1173 45.4207 36.7423 49.0958 40.2424 51.6625L49.4592 58.371C50.1009 58.8376 51.0343 58.8376 51.6759 58.371L60.8344 51.7208C64.3345 49.1541 66.9595 45.4791 68.2429 41.3373C68.8263 39.4123 69.1179 37.4289 69.1179 35.4455V16.7785C69.1179 15.4368 68.1846 14.3285 66.8429 14.0368C59.9011 12.5785 54.1843 9.19507 52.026 7.79504C51.6176 7.50337 51.0926 7.32837 50.5676 7.32837ZM50.5676 57.7876C50.3926 57.7876 50.1593 57.7293 50.0426 57.6126L40.8841 50.9625C37.559 48.5124 35.0506 45.0124 33.8256 41.104C33.2423 39.2956 32.9506 37.3706 32.9506 35.4455V16.7785C32.9506 15.9035 33.5923 15.1452 34.4673 14.9702C41.2924 13.5118 46.8925 10.3618 49.5759 8.61173C50.2176 8.20339 50.9759 8.20339 51.6176 8.61173C54.3593 10.3618 59.9011 13.5701 66.7262 14.9702C67.6012 15.1452 68.2429 15.9035 68.2429 16.7785V35.3872C68.2429 37.3122 67.9512 39.1789 67.3679 41.0456C66.1429 45.0124 63.6345 48.5124 60.3094 50.9042L51.1509 57.5543C50.9176 57.7293 50.7426 57.7876 50.5676 57.7876ZM50.5676 8.61173C50.2759 8.61173 49.9842 8.67006 49.7509 8.84506C47.0092 10.5951 41.4091 13.8035 34.5256 15.2618C33.7673 15.4368 33.3006 16.0202 33.3006 16.7785V35.3872C33.3006 37.2539 33.5923 39.1206 34.1173 40.929C35.284 44.8374 37.7924 48.2791 41.0591 50.6708L50.2176 57.3209C50.4509 57.4959 50.7426 57.4959 50.9176 57.3209L60.0761 50.6708C63.3428 48.2791 65.8512 44.8374 67.0179 40.929C67.5429 39.1206 67.8346 37.2539 67.8346 35.3872V16.7785C67.8346 16.0202 67.3096 15.4368 66.6095 15.2618C59.7261 13.8035 54.126 10.5951 51.3843 8.84506C51.1509 8.67006 50.8593 8.61173 50.5676 8.61173Z" fill="#22417D"/>
<path d="M56.7511 22.9619L47.0676 34.0455L43.8592 31.4788C42.4592 30.3121 40.3591 30.5454 39.1924 31.9454C38.0258 33.3455 38.2591 35.4455 39.6591 36.5539L47.7676 43.0873L61.6512 27.2204C62.8762 25.8787 62.7012 23.7786 61.3595 22.5536C60.0178 21.4453 57.9178 21.5619 56.7511 22.9619Z" fill="#EBECE9"/>
<path d="M63.1678 24.8287C63.1095 23.7787 62.6428 22.8453 61.8262 22.1453C60.1928 20.7453 57.6844 20.9203 56.2844 22.4953L46.9509 33.1122L44.2675 30.9538C42.5758 29.6121 40.1258 29.8455 38.7257 31.5372C38.0841 32.3538 37.7341 33.3455 37.8507 34.3955C37.9674 35.4456 38.4924 36.3789 39.3091 37.0206L47.8842 43.9624L62.1762 27.6288C62.8762 26.9287 63.2262 25.8787 63.1678 24.8287ZM40.1258 36.0872C39.6008 35.6206 39.2507 34.9789 39.1341 34.2789C39.0757 33.5789 39.2507 32.8789 39.7174 32.3538C40.2424 31.7122 41.0008 31.3622 41.8175 31.3622C42.4008 31.3622 43.0425 31.5955 43.5092 31.9455L47.1842 34.9206L57.2177 23.3703C58.2094 22.262 59.8428 22.1453 60.9511 23.137C61.4761 23.6037 61.8262 24.2454 61.8845 24.9454C61.9428 25.6454 61.7095 26.3454 61.2428 26.8704L47.7676 42.2707L40.1258 36.0872Z" fill="#22417D"/>
</svg>

<svg xmlns="http://www.w3.org/2000/svg" width="103" height="100" fill="none" xmlns:v="https://vecta.io/nano"><path d="M82.545 82.7H64.739a.79.79 0 0 1-.798-.8V61.1a.798.798 0 1 1 1.596 0v20h17.008a.8.8 0 1 1 0 1.6zm-45.088 0H19.651a.8.8 0 1 1 0-1.6h17.008v-20a.798.798 0 1 1 1.596 0v20.8c0 .4-.399.8-.798.8zm13.217 13.45a.79.79 0 0 1-.798-.8V66.651a.798.798 0 1 1 1.596 0V95.35a.79.79 0 0 1-.798.8z" fill="#244583"/><path d="M87.034 29.101c4.239-10.55-.848-22.55-11.372-26.799-7.781-3.15-16.708-1.2-22.494 4.85-8.579-7.45-21.546-6.55-28.978 2.05-2.743 3.15-4.489 7.1-4.938 11.3-12.569 2.7-20.649 15.1-17.955 27.7s15.063 20.7 27.631 18c2.993-.65 5.835-1.85 8.379-3.6 7.581 8.4 20.549 9.05 28.928 1.45.15-.1.249-.25.399-.35 8.23 7.85 21.247 7.5 29.078-.75s7.481-21.3-.748-29.149a20.3 20.3 0 0 0-7.93-4.7z" fill="#ebece9"/><path d="M101.348 48.701c0 11.35-9.177 20.6-20.499 20.6a20.65 20.65 0 0 1-14.215-5.7c-8.18 7.85-21.147 7.55-28.978-.65l-.399-.4c-10.574 7.35-25.088 4.65-32.419-5.95-2.394-3.45-3.791-7.5-4.09-11.7 5.287 11.75 19.053 17 30.823 11.7 1.297-.6 2.494-1.25 3.691-2.1 7.581 8.4 20.549 9.05 28.928 1.45.15-.1.249-.25.399-.4 8.23 7.85 21.197 7.55 29.028-.7 3.641-3.85 5.686-8.95 5.686-14.2v-.9c1.397 2.85 2.095 5.9 2.045 8.95z" fill="#c1c1c1"/><path d="M80.799 70.15c-5.237 0-10.225-1.9-14.165-5.4-8.529 7.6-21.546 7.1-29.477-1.15-11.172 7.25-26.085 4.05-33.317-7.15C1.347 52.55 0 48 0 43.35c.05-11.2 7.681-20.9 18.554-23.499C20.1 8.101 30.873-.099 42.544 1.501c3.89.55 7.531 2.1 10.574 4.55 3.99-3.9 9.327-6.1 14.863-6.05 11.771 0 21.347 9.55 21.347 21.35 0 2.45-.399 4.9-1.247 7.25 11.072 4.05 16.808 16.3 12.818 27.449-3.092 8.45-11.122 14.1-20.1 14.1zm-14.115-7.3c.2 0 .399.1.549.2 7.93 7.55 20.399 7.2 27.931-.7s7.183-20.45-.698-27.999c-2.145-2.05-4.788-3.6-7.631-4.5-.399-.15-.648-.6-.499-1v-.05c4.09-10.15-.848-21.65-10.973-25.75a19.77 19.77 0 0 0-21.646 4.7c-.299.3-.798.35-1.097.05-8.23-7.2-20.699-6.35-27.831 1.9-2.643 3.05-4.289 6.85-4.738 10.85-.05.35-.299.65-.648.7C7.282 23.85-.499 35.85 2.095 48s14.564 19.95 26.684 17.35c2.893-.6 5.636-1.8 8.08-3.5.349-.25.798-.2 1.047.1 7.282 8.1 19.751 8.7 27.831 1.4.15-.1.249-.25.399-.35.15-.05.349-.15.549-.15z" fill="#244583"/><path d="M53.168 7.152s2.245 1.6 3.042 5.65l-3.042-5.65z" fill="#dbe2eb"/><path d="M56.21 13.652c-.399 0-.698-.25-.798-.65-.748-3.7-2.743-5.15-2.743-5.2-.349-.25-.449-.75-.2-1.1s.748-.45 1.097-.2h.05c.1.05 2.494 1.85 3.392 6.15.1.45-.2.85-.599.95-.1.05-.15.05-.2.05z" fill="#2f3a5a"/><path d="M87.034 29.101c-2.394-1-5.038-1.3-7.631-.95l7.631.95z" fill="#dbe2eb"/><path d="M87.034 29.901c-.1 0-.249-.05-.349-.1-2.244-.9-4.738-1.2-7.132-.85-.449.05-.848-.25-.898-.7s.249-.85.648-.9c2.743-.4 5.536-.05 8.08 1 .399.2.549.65.349 1.05-.1.3-.399.45-.698.5z" fill="#2f3a5a"/><path d="M19.252 20.452s4.14-.9 6.883 1.6l-6.883-1.6z" fill="#dbe2eb"/><path d="M26.135 22.851c-.2 0-.399-.05-.549-.2-2.394-2.15-6.135-1.4-6.135-1.4-.449.1-.848-.2-.948-.6s.199-.85.598-.95c.2-.05 4.589-.95 7.581 1.8.349.3.349.8.05 1.15a1.22 1.22 0 0 1-.598.2z" fill="#2f3a5a"/><path d="M50.674 88.1c-3.043 0-5.536 2.5-5.536 5.55s2.494 5.55 5.536 5.55 5.536-2.5 5.536-5.55-2.494-5.55-5.536-5.55z" fill="#9fefde"/><path d="M50.674 100c-3.491 0-6.334-2.85-6.334-6.35s2.843-6.35 6.334-6.35 6.334 2.85 6.334 6.35-2.843 6.35-6.334 6.35zm0-11.1c-2.594 0-4.738 2.1-4.738 4.75a4.71 4.71 0 0 0 4.738 4.75 4.71 4.71 0 0 0 4.738-4.75c0-2.6-2.145-4.75-4.738-4.75z" fill="#244583"/><path d="M82.545 75.851c-3.042 0-5.536 2.5-5.536 5.55s2.494 5.55 5.536 5.55 5.536-2.5 5.536-5.55a5.53 5.53 0 0 0-5.536-5.55z" fill="#fed19a"/><path d="M82.545 87.7c-3.491 0-6.334-2.85-6.334-6.35S79.053 75 82.545 75s6.334 2.85 6.334 6.35a6.32 6.32 0 0 1-6.334 6.35zm0-11.05c-2.594 0-4.738 2.15-4.738 4.75s2.145 4.75 4.738 4.75 4.738-2.15 4.738-4.75c0-2.65-2.145-4.75-4.738-4.75z" fill="#244583"/><path d="M18.404 76.35c-3.042 0-5.536 2.5-5.536 5.55s2.494 5.55 5.536 5.55 5.536-2.5 5.536-5.55a5.53 5.53 0 0 0-5.536-5.55z" fill="#24c4a1"/><path d="M18.404 88.25c-3.491 0-6.334-2.85-6.334-6.35s2.843-6.35 6.334-6.35 6.334 2.85 6.334 6.35-2.843 6.3-6.334 6.35zm0-11.1c-2.593 0-4.738 2.1-4.738 4.75 0 2.6 2.095 4.75 4.738 4.75a4.71 4.71 0 0 0 4.738-4.75c0-2.65-2.145-4.75-4.738-4.75z" fill="#244583"/><path d="M49.343 8.67c-2.392 1.575-7.933 4.783-14.7 6.183-1.05.233-1.808 1.167-1.808 2.217v18.259a18.5 18.5 0 0 0 .875 5.658c1.225 3.967 3.733 7.467 7.117 9.917l8.984 6.534c.467.35 1.108.35 1.633 0l8.983-6.534c3.383-2.45 5.892-5.95 7.117-9.917.583-1.808.875-3.733.875-5.658v-18.2c0-1.108-.758-1.983-1.808-2.217-6.883-1.458-12.425-4.667-14.817-6.242a2.32 2.32 0 0 0-2.45 0z" fill="#9fefde"/><path d="M66.901 14.387c-.175-.058-.35-.058-.583-.117a2.24 2.24 0 0 1 .525 1.458v18.784c0 1.983-.292 3.908-.875 5.833-1.283 4.083-3.967 7.7-7.525 10.209l-9.508 6.709c-.233.175-.467.233-.758.233l.992.7c.525.35 1.225.35 1.692 0l9.509-6.708c3.558-2.508 6.242-6.125 7.525-10.208.583-1.867.875-3.85.875-5.834V16.72c.058-1.108-.758-2.1-1.867-2.333z" fill="#24c4a1"/><g fill="#22417d"><path d="M66.901 13.862c-6.942-1.458-12.6-4.842-14.759-6.242-.992-.642-2.217-.642-3.208 0-2.158 1.4-7.817 4.783-14.759 6.242-1.4.292-2.392 1.517-2.392 2.917v18.609c0 2.042.292 4.025.875 5.95 1.283 4.2 3.967 7.875 7.467 10.442l9.159 6.65c.35.233.758.408 1.167.408s.817-.117 1.167-.408l9.158-6.65c3.558-2.567 6.183-6.3 7.467-10.442.583-1.925.875-3.967.875-5.95V16.779c.175-1.4-.817-2.625-2.217-2.917zm1.108 2.917v18.609c0 1.925-.292 3.792-.817 5.6-1.225 3.908-3.675 7.409-7 9.8l-9.158 6.65c-.292.175-.642.175-.875 0l-9.217-6.65c-3.325-2.392-5.775-5.892-7-9.8-.583-1.808-.817-3.675-.817-5.6V16.779c0-.817.583-1.517 1.4-1.633 6.883-1.458 12.484-4.609 15.167-6.417a1.79 1.79 0 0 1 1.867 0c2.742 1.75 8.342 4.958 15.167 6.417.758.117 1.283.817 1.283 1.633z"/><path d="M50.568 59.013c-.467 0-.933-.117-1.283-.408l-9.158-6.65a20.3 20.3 0 0 1-7.525-10.559 20.8 20.8 0 0 1-.875-6.008V16.779c0-1.458 1.05-2.742 2.508-3.033 6.825-1.458 12.484-4.842 14.642-6.242 1.05-.7 2.392-.642 3.383 0 2.1 1.4 7.817 4.725 14.7 6.183 1.458.292 2.508 1.575 2.508 3.033v18.609c0 2.042-.292 4.083-.875 6.008-1.283 4.2-3.967 7.934-7.525 10.559l-9.158 6.65c-.408.35-.875.467-1.342.467zm0-51.684c-.525 0-1.05.175-1.517.467-2.158 1.4-7.875 4.783-14.817 6.242-1.283.292-2.275 1.4-2.275 2.742v18.609c0 1.983.292 4.025.875 5.892 1.283 4.142 3.908 7.817 7.409 10.383l9.217 6.709a1.93 1.93 0 0 0 2.217 0l9.159-6.65c3.5-2.567 6.125-6.242 7.409-10.383.583-1.925.875-3.908.875-5.892V16.779c0-1.342-.933-2.45-2.275-2.742-6.942-1.458-12.659-4.842-14.817-6.242-.408-.292-.933-.467-1.458-.467zm0 50.459c-.175 0-.408-.058-.525-.175l-9.159-6.65c-3.325-2.45-5.833-5.95-7.058-9.858a18.5 18.5 0 0 1-.875-5.658V16.779c0-.875.642-1.633 1.517-1.808 6.825-1.458 12.425-4.608 15.109-6.358.642-.408 1.4-.408 2.042 0 2.742 1.75 8.283 4.958 15.109 6.358.875.175 1.517.933 1.517 1.808v18.609c0 1.925-.292 3.792-.875 5.658-1.225 3.967-3.733 7.467-7.059 9.859l-9.158 6.65c-.233.175-.408.233-.583.233zm0-49.176c-.292 0-.583.058-.817.233-2.742 1.75-8.342 4.958-15.225 6.417a1.5 1.5 0 0 0-1.225 1.517v18.609c0 1.867.292 3.733.817 5.542 1.167 3.908 3.675 7.35 6.942 9.742l9.158 6.65c.233.175.525.175.7 0l9.158-6.65c3.267-2.392 5.775-5.833 6.942-9.742.525-1.808.817-3.675.817-5.542V16.779c0-.758-.525-1.342-1.225-1.517-6.883-1.458-12.483-4.667-15.225-6.417-.233-.175-.525-.233-.817-.233z"/></g><path d="M56.751 22.962l-9.684 11.084-3.208-2.567c-1.4-1.167-3.5-.933-4.667.467s-.933 3.5.467 4.608l8.108 6.533L61.651 27.22c1.225-1.342 1.05-3.442-.292-4.667-1.342-1.108-3.442-.992-4.608.408z" fill="#ebece9"/><path d="M63.168 24.829a3.75 3.75 0 0 0-1.342-2.683c-1.633-1.4-4.142-1.225-5.542.35l-9.333 10.617-2.683-2.158a3.97 3.97 0 0 0-5.542.583c-.642.817-.992 1.808-.875 2.858a3.86 3.86 0 0 0 1.458 2.625l8.575 6.942 14.292-16.334c.7-.7 1.05-1.75.992-2.8zM40.126 36.087c-.525-.467-.875-1.108-.992-1.808-.058-.7.117-1.4.583-1.925.525-.642 1.283-.992 2.1-.992.583 0 1.225.233 1.692.583l3.675 2.975 10.034-11.55c.992-1.108 2.625-1.225 3.733-.233.525.467.875 1.108.933 1.808s-.175 1.4-.642 1.925l-13.475 15.4-7.642-6.183z" fill="#22417d"/></svg>
